icons/marketplace-aboutyou.svg

<svg width="36" height="36" viewBox="0 0 36 36" fill="none" xmlns="http://www.w3.org/2000/svg">
    <rect width="36" height="36" rx="8" fill="black"/>
    <g clip-path="url(#clip0_2631_367)">
        <rect width="24" height="8.45275" transform="translate(6 8.99994)" fill="black"/>
        <path d="M30 8.99994V17.4531H6V8.99994H30ZM18.25 10.0986C17.79 10.0986 17.4232 10.1767 17.1504 10.3329C16.8778 10.4893 16.6684 10.7068 16.5234 10.9853C16.3785 11.2637 16.2848 11.5982 16.2422 11.9872C16.1996 12.3761 16.1787 12.8008 16.1787 13.2607C16.1787 13.7267 16.1995 14.1537 16.2422 14.54C16.2849 14.9265 16.3785 15.2587 16.5234 15.537C16.6684 15.8158 16.8775 16.029 17.1504 16.1767C17.4232 16.3243 17.79 16.3984 18.25 16.3984C18.71 16.3983 19.0771 16.3244 19.3496 16.1767C19.6221 16.029 19.8307 15.8154 19.9756 15.537C20.1205 15.2587 20.2142 14.9264 20.2568 14.54C20.2995 14.1537 20.3213 13.7267 20.3213 13.2607C20.3213 12.8008 20.2994 12.3764 20.2568 11.9872C20.2142 11.5978 20.1205 11.2637 19.9756 10.9853C19.8307 10.7069 19.6224 10.4893 19.3496 10.3329C19.0771 10.1766 18.71 10.0986 18.25 10.0986ZM20.7676 10.2187V14.4628C20.7676 14.8719 20.8216 15.2044 20.9297 15.4599C21.0375 15.7158 21.1823 15.9136 21.3643 16.0527C21.5459 16.192 21.7535 16.2836 21.9863 16.329C22.219 16.3745 22.461 16.3974 22.7109 16.3974C22.9608 16.3974 23.2026 16.3725 23.4355 16.3212C23.6682 16.2702 23.8756 16.1701 24.0576 16.0224C24.2393 15.8747 24.3843 15.6746 24.4922 15.4218C24.6 15.169 24.6543 14.8494 24.6543 14.4628V10.2187H23.4268V14.4628C23.4268 14.6161 23.4172 14.7568 23.3975 14.8847C23.3777 15.0127 23.3402 15.1241 23.2861 15.2177C23.2321 15.3111 23.16 15.3854 23.0693 15.4394C22.9786 15.4933 22.8593 15.5194 22.7119 15.5195C22.5698 15.5195 22.451 15.4934 22.3574 15.4394C22.2638 15.3856 22.1898 15.3113 22.1357 15.2177C22.0817 15.1238 22.0452 15.0127 22.0254 14.8847C22.0056 14.7568 21.9951 14.6161 21.9951 14.4628V10.2187H20.7676ZM8.35547 10.2187L6.74512 16.3046H8.02344L8.30469 15.0175H9.92383L10.2051 16.3046H11.4844L9.87305 10.2187H8.35547ZM11.9102 10.2187V16.3046H13.9814C14.3396 16.3046 14.6392 16.2559 14.8809 16.1591C15.1221 16.0624 15.318 15.9333 15.4688 15.7714C15.6192 15.6096 15.7253 15.4209 15.7881 15.205C15.8505 14.989 15.8821 14.7613 15.8818 14.5224C15.8818 14.1133 15.7827 13.7863 15.584 13.5419C15.385 13.2976 15.1151 13.1528 14.7744 13.1074V13.0908C15.0812 13.0058 15.3116 12.845 15.4648 12.6093C15.6184 12.3735 15.6943 12.0904 15.6943 11.7607C15.6943 11.471 15.6516 11.2272 15.5664 11.0283C15.4811 10.8293 15.3625 10.67 15.209 10.5507C15.0554 10.4314 14.8724 10.3462 14.6592 10.2949C14.446 10.2439 14.2147 10.2187 13.9648 10.2187H11.9102ZM24.9873 10.2187V11.2245H26.3174V16.3046H27.5449V11.2245H28.874V10.2187H24.9873ZM18.249 11.0019C18.431 11.0019 18.5778 11.0437 18.6885 11.1259C18.7991 11.2084 18.8847 11.3407 18.9443 11.5224C19.004 11.7044 19.0437 11.9373 19.0635 12.2216C19.0836 12.5059 19.0938 12.8525 19.0938 13.2617C19.0937 13.6707 19.0832 14.0189 19.0635 14.3056C19.0434 14.5927 19.004 14.8259 18.9443 15.0048C18.8847 15.1838 18.7991 15.3152 18.6885 15.3974C18.5776 15.4798 18.4306 15.5204 18.249 15.5204C18.0676 15.5204 17.9211 15.4798 17.8105 15.3974C17.6996 15.3149 17.6143 15.1837 17.5547 15.0048C17.495 14.8256 17.4553 14.5927 17.4355 14.3056C17.4155 14.0186 17.4053 13.6707 17.4053 13.2617C17.4053 12.8525 17.4155 12.5059 17.4355 12.2216C17.4553 11.9373 17.495 11.7044 17.5547 11.5224C17.6146 11.3404 17.6996 11.2084 17.8105 11.1259C17.9211 11.0438 18.0672 11.002 18.249 11.0019ZM13.666 13.5683C13.8025 13.5683 13.9274 13.5819 14.041 13.6103C14.1546 13.639 14.2525 13.6887 14.335 13.7597C14.4171 13.8307 14.4827 13.9244 14.5312 14.041C14.5792 14.1575 14.6035 14.3043 14.6035 14.4804C14.6035 14.8326 14.5127 15.0743 14.3311 15.205C14.1491 15.3356 13.9105 15.4003 13.6152 15.4003H13.1377V13.5683H13.666ZM9.71094 14.0117H8.51758L9.10547 11.2753H9.12305L9.71094 14.0117ZM13.5811 11.122C13.8877 11.1221 14.1118 11.1815 14.2539 11.3007C14.396 11.42 14.4668 11.6243 14.4668 11.914C14.4668 12.2037 14.3892 12.4101 14.2334 12.5322C14.0771 12.6545 13.8283 12.7157 13.4873 12.7158H13.1377V11.122H13.5811Z"
              fill="white"/>
        <rect width="18.1711" height="8.45275" transform="translate(6 17.981)" fill="black"/>
        <path d="M24.1709 26.4341H6V17.981H24.1709V26.4341ZM13.2031 19.0797C12.7432 19.0797 12.3763 19.1577 12.1035 19.314C11.8311 19.4704 11.6224 19.688 11.4775 19.9664C11.3326 20.2448 11.2389 20.5792 11.1963 20.9683C11.1537 21.3572 11.1328 21.7819 11.1328 22.2418C11.1328 22.7078 11.1536 23.1347 11.1963 23.5211C11.239 23.9075 11.3326 24.2398 11.4775 24.5181C11.6224 24.7968 11.8308 25.0101 12.1035 25.1578C12.3763 25.3055 12.7432 25.3794 13.2031 25.3795C13.663 25.3795 14.0302 25.3053 14.3027 25.1578C14.5753 25.0101 14.7847 24.7965 14.9297 24.5181C15.0746 24.2398 15.1683 23.9075 15.2109 23.5211C15.2536 23.1347 15.2741 22.7078 15.2744 22.2418C15.2744 21.7819 15.2535 21.3575 15.2109 20.9683C15.1683 20.5789 15.0746 20.2448 14.9297 19.9664C14.7847 19.6879 14.5756 19.4704 14.3027 19.314C14.0302 19.1578 13.6631 19.0797 13.2031 19.0797ZM15.71 23.4439C15.71 23.853 15.7639 24.1854 15.8721 24.441C15.9796 24.6969 16.1246 24.8947 16.3066 25.0338C16.4883 25.1731 16.6958 25.2647 16.9287 25.3101C17.1614 25.3555 17.4033 25.3785 17.6533 25.3785C17.903 25.3785 18.1449 25.3536 18.3779 25.3023C18.6106 25.2513 18.818 25.1512 19 25.0035C19.1816 24.8558 19.3268 24.6556 19.4346 24.4029C19.5154 24.2133 19.5657 23.9861 19.5859 23.7213L19.5967 23.4439V19.1998H18.3691V23.4439C18.3691 23.5971 18.3596 23.7379 18.3398 23.8658C18.3201 23.9937 18.2836 24.1052 18.2295 24.1988C18.1754 24.2924 18.1026 24.3664 18.0117 24.4205C17.921 24.4744 17.8017 24.5005 17.6543 24.5005C17.5122 24.5005 17.3934 24.4745 17.2998 24.4205C17.2062 24.3667 17.1322 24.2924 17.0781 24.1988C17.024 24.1048 16.9876 23.9937 16.9678 23.8658C16.9477 23.7379 16.9375 23.5972 16.9375 23.4439V19.1998H15.71V23.4439ZM8.40625 22.8902V25.2857H9.63281V22.8902L11.21 19.1998H9.88086L9.02832 21.5523H9.01074L8.20996 19.1998H6.8291L8.40625 22.8902ZM13.2031 19.983C13.3852 19.983 13.5319 20.0248 13.6426 20.107C13.7532 20.1895 13.8388 20.3218 13.8984 20.5035C13.9581 20.6855 13.9975 20.9184 14.0176 21.2027C14.0377 21.487 14.0469 21.8336 14.0469 22.2427C14.0469 22.6518 14.0373 23 14.0176 23.2867C13.9975 23.5738 13.9581 23.807 13.8984 23.9859C13.8388 24.1648 13.7535 24.2963 13.6426 24.3785C13.5316 24.4609 13.3848 24.5015 13.2031 24.5015C13.0217 24.5015 12.8752 24.4608 12.7646 24.3785C12.6537 24.296 12.5684 24.1648 12.5088 23.9859C12.4491 23.8067 12.4094 23.5738 12.3896 23.2867C12.3699 22.9996 12.3594 22.6518 12.3594 22.2427C12.3594 21.8336 12.3696 21.487 12.3896 21.2027C12.4094 20.9184 12.4491 20.6855 12.5088 20.5035C12.5684 20.3215 12.6537 20.1895 12.7646 20.107C12.8752 20.0249 13.0215 19.983 13.2031 19.983ZM21.7832 19.0162C21.011 19.0162 20.385 19.6425 20.3848 20.4146C20.3848 21.1869 21.0109 21.813 21.7832 21.813C22.5553 21.8128 23.1816 21.1868 23.1816 20.4146C23.1814 19.6427 22.5551 19.0164 21.7832 19.0162ZM21.7832 19.4429C21.974 19.443 22.1524 19.4989 22.3027 19.5943L21.874 20.022L22.1758 20.3238L22.6035 19.8951C22.6989 20.0455 22.7548 20.2238 22.7549 20.4146C22.7549 20.9507 22.3192 21.387 21.7832 21.3873C21.247 21.3873 20.8105 20.9508 20.8105 20.4146C20.8108 19.8786 21.2471 19.4429 21.7832 19.4429Z"
              fill="white"/>
    </g>
    <defs>
        <clipPath id="clip0_2631_367">
            <rect width="24" height="17.4338" fill="white" transform="translate(6 8.99994)"/>
        </clipPath>
    </defs>
</svg>

<svg xmlns="http://www.w3.org/2000/svg" fill="none" viewBox="0 0 36 36"><rect width="36" height="36" fill=" currentColor" rx="8"/><g fill="currentColor" clip-path="url(#a)"><path d="M6 9h24v8.453H6z"/><path d="M30 9v8.453H6V9zm-11.75 1.099q-.69 0-1.1.234a1.6 1.6 0 0 0-.627.652 2.8 2.8 0 0 0-.28 1.002 12 12 0 0 0-.064 1.274q0 .7.063 1.279.064.58.281.997t.627.64q.41.22 1.1.221.69 0 1.1-.221.407-.223.626-.64.217-.417.28-.997.065-.58.065-1.28 0-.69-.064-1.273a2.8 2.8 0 0 0-.281-1.002 1.58 1.58 0 0 0-.626-.652q-.41-.234-1.1-.234m2.518.12v4.244q0 .613.162.997t.434.593.622.276q.35.069.725.068.375.001.725-.076.348-.075.622-.299a1.5 1.5 0 0 0 .434-.6q.162-.38.162-.96V10.22h-1.227v4.244q0 .23-.03.422a1 1 0 0 1-.11.333.6.6 0 0 1-.218.221.7.7 0 0 1-.357.08.7.7 0 0 1-.355-.08.6.6 0 0 1-.221-.221 1 1 0 0 1-.11-.333 3 3 0 0 1-.03-.422v-4.244zm-12.413 0-1.61 6.086h1.278l.282-1.287h1.619l.281 1.287h1.28l-1.612-6.086zm3.555 0v6.086h2.071q.538-.001.9-.146.361-.145.588-.388.224-.242.32-.566.093-.324.093-.683 0-.614-.298-.98a1.2 1.2 0 0 0-.81-.435v-.016q.461-.128.69-.482a1.5 1.5 0 0 0 .23-.848q0-.435-.128-.733a1.2 1.2 0 0 0-.357-.477 1.4 1.4 0 0 0-.55-.256 3 3 0 0 0-.694-.076zm13.077 0v1.006h1.33v5.08h1.228v-5.08h1.329v-1.006zm-6.738.783a.72.72 0 0 1 .44.124q.166.124.255.396.09.273.12.7.03.425.03 1.04 0 .614-.03 1.044t-.12.699a.78.78 0 0 1-.255.392.72.72 0 0 1-.44.123.7.7 0 0 1-.438-.123.78.78 0 0 1-.256-.392q-.09-.269-.12-.7t-.03-1.043q0-.614.03-1.04t.12-.7q.09-.273.256-.396a.72.72 0 0 1 .438-.124m-4.583 2.566q.204 0 .375.042a.7.7 0 0 1 .294.15.74.74 0 0 1 .196.281q.072.175.072.44 0 .528-.272.724t-.716.195h-.477v-1.832zm-3.955.444H8.518l.587-2.737h.018zm3.87-2.89q.46 0 .673.179.213.178.213.613t-.234.618q-.234.184-.746.184h-.35v-1.594zM6 17.981h18.171v8.453H6z"/><path d="M24.17 26.434H6v-8.453h18.17zM13.204 19.08q-.69 0-1.1.234a1.6 1.6 0 0 0-.626.652 2.8 2.8 0 0 0-.28 1.002 12 12 0 0 0-.064 1.274q0 .7.063 1.28.065.579.281.996t.627.64q.409.22 1.1.221.689 0 1.099-.221.409-.222.627-.64.217-.417.28-.997.065-.58.064-1.28 0-.689-.063-1.273a2.8 2.8 0 0 0-.281-1.002 1.6 1.6 0 0 0-.627-.652q-.41-.234-1.1-.234m2.507 4.364q0 .613.162.997t.435.593.622.276q.349.069.724.069t.725-.077q.35-.075.622-.299a1.5 1.5 0 0 0 .435-.6q.12-.285.15-.682l.012-.277V19.2h-1.228v4.244q0 .23-.03.422a1 1 0 0 1-.11.333.6.6 0 0 1-.217.221.7.7 0 0 1-.358.08.7.7 0 0 1-.354-.08.6.6 0 0 1-.222-.221 1 1 0 0 1-.11-.333 3 3 0 0 1-.03-.422V19.2H15.71zm-7.304-.554v2.396h1.227V22.89l1.577-3.69H9.88l-.852 2.352h-.017L8.21 19.2H6.83zm4.797-2.907a.72.72 0 0 1 .44.124q.166.124.255.396.09.274.12.7t.029 1.04q0 .613-.03 1.044-.03.43-.119.699a.78.78 0 0 1-.255.392.72.72 0 0 1-.44.123.72.72 0 0 1-.438-.123.78.78 0 0 1-.256-.392q-.09-.269-.12-.7t-.03-1.043.03-1.04q.03-.426.12-.7.09-.272.256-.396a.72.72 0 0 1 .438-.124m8.58-.967a1.399 1.399 0 1 0 0 2.798 1.399 1.399 0 0 0 0-2.798m0 .427c.191 0 .37.056.52.151l-.429.428.302.302.428-.429a.974.974 0 0 1-.82 1.492.974.974 0 0 1-.974-.972c0-.536.437-.972.973-.972"/></g><defs><clipPath id="a"><path fill="currentColor" d="M6 9h24v17.434H6z"/></clipPath></defs></svg>
